X:166
M:6/8
L:1/8
K:D
|: A | B=cB d2B | B2A ABA | A2G G2F | F3 E2A | B=cB d2B | B2A ABA | A2G F2E | (D3 D2) :|

